React/src/assets/images/backend/stripe.svg

<svg width="130" height="130" viewBox="0 0 130 130" fill="none" xmlns="http://www.w3.org/2000/svg">
<g clip-path="url(#clip0)">
<path fill-rule="evenodd" clip-rule="evenodd" d="M280.979 34.4093L279.752 28.5837H262.706V97.6625H282.401V50.7812C287.06 44.6874 294.921 45.8737 297.424 46.6496V28.5918C294.799 27.6493 285.59 25.9187 280.979 34.4012V34.4093ZM241.451 11.4724L222.211 15.5593L222.129 78.78C222.129 90.4393 230.896 99.064 242.596 99.064C249.035 99.064 253.792 97.8371 256.429 96.4518V80.405C253.902 81.4125 241.467 85.0281 241.467 73.4175V45.3862H256.429V28.5796H241.467L241.451 11.4724ZM188.094 48.6281C188.094 45.5487 190.653 44.3624 194.789 44.3624C201.635 44.5107 208.352 46.2492 214.411 49.4406V30.8749C208.164 28.4187 201.501 27.1937 194.789 27.2674C178.848 27.2674 168.151 35.6199 168.151 49.5624C168.151 71.3781 198.112 67.8356 198.112 77.2403C198.112 80.9209 194.943 82.0584 190.543 82.0584C184.019 82.0584 175.593 79.3609 168.984 75.7615V94.5709C175.788 97.5305 183.123 99.0744 190.543 99.1087C206.927 99.1087 218.221 91.0162 218.221 76.8259C218.221 53.2796 188.09 57.4884 188.09 48.6199L188.094 48.6281ZM56.3875 38.6546C56.3875 33.089 61.0187 30.9359 68.5019 30.9359C80.8868 31.2035 93.0397 34.3481 104 40.1212V6.52432C92.6983 2.08284 80.6443 -0.131237 68.5019 0.00401144C39.6581 0.00401144 20.3125 15.1124 20.3125 40.3406C20.3125 79.8118 74.5144 73.4012 74.5144 90.415C74.5144 97.0693 68.8269 99.1331 60.8238 99.1331C49.0222 99.1331 33.7797 94.25 21.8238 87.75V121.786C34.1332 127.142 47.4038 129.936 60.8278 130C90.4719 130 110.906 115.355 110.906 89.6878C110.906 47.0884 56.3875 54.6974 56.3875 38.6628V38.6546Z" fill="#6772E5"/>
</g>
<defs>
<clipPath id="clip0">
<rect width="130" height="130" fill="white"/>
</clipPath>
</defs>
</svg>

<svg width="130" height="130" fill="none" xmlns="http://www.w3.org/2000/svg"><g clip-path="url(#clip0)"><path fill-rule="evenodd" clip-rule="evenodd" d="M280.979 34.41l-1.227-5.826h-17.046v69.079h19.695V50.78c4.659-6.094 12.52-4.907 15.023-4.131V28.592c-2.625-.943-11.834-2.673-16.445 5.81v.007zm-39.528-22.938l-19.24 4.087-.082 63.221c0 11.66 8.767 20.284 20.467 20.284 6.439 0 11.196-1.227 13.833-2.612V80.405c-2.527 1.007-14.962 4.623-14.962-6.987V45.386h14.962V28.58h-14.962l-.016-17.108zm-53.357 37.156c0-3.08 2.559-4.266 6.695-4.266a44.155 44.155 0 0119.622 5.079V30.875a52.063 52.063 0 00-19.622-3.608c-15.941 0-26.638 8.353-26.638 22.295 0 21.816 29.961 18.274 29.961 27.678 0 3.68-3.169 4.818-7.569 4.818-6.524 0-14.95-2.697-21.559-6.297v18.81a54.682 54.682 0 0021.559 4.538c16.384 0 27.678-8.093 27.678-22.283 0-23.546-30.131-19.338-30.131-28.206l.004.008zM56.387 38.655c0-5.566 4.632-7.72 12.115-7.72A79.873 79.873 0 01104 40.122V6.524A94.185 94.185 0 0068.502.004c-28.844 0-48.19 15.108-48.19 40.337 0 39.47 54.202 33.06 54.202 50.074 0 6.654-5.687 8.718-13.69 8.718-11.802 0-27.044-4.883-39-11.383v34.036A98.94 98.94 0 0060.828 130c29.644 0 50.078-14.645 50.078-40.312 0-42.6-54.519-34.99-54.519-51.025v-.008z" fill="#6772E5"/></g><defs><clipPath id="clip0"><path fill="#fff" d="M0 0h130v130H0z"/></clipPath></defs></svg>
